X:57 % number
T:Barnacle Bill % title
C:Traditional % composer
O:Transcribed by Myscha Aiken % origin.
M:2/2 % meter
L:1/4 % length of shortest note
Q:300 % tempo
K:G % key
V:1 % voice 1
gf g2 | G2 G2 | dcBd | gfgb |
ag a2 | A2 A2 | AGFA | d^c d2 |
efgf | eded | cBcB | AGGF |
EDEG | FAGB | Ac B2| G2 G2 |
dcBd | gdBd | gd e2| c2 c2 |
ed^ce | ae^ce | ae f2| d2 d2 |
cB c2 | e2 ed | cBcB | AGGF |
EDEG | FAGB | Ac B2| G2 G2 |]
To convert the code above to sheet music, or listen to the tunes, copy the code for a single song, then paste it here and [submit].
